assets/iconcollection/furgon-ketablakos.svg

<?xml version="1.0" encoding="UTF-8"?>
<svg viewBox="0 0 95 70" version="1.1" xmlns="http://www.w3.org/2000/svg" xmlns:xlink="http://www.w3.org/1999/xlink">
    <!-- Generator: Sketch 52.4 (67378) - http://www.bohemiancoding.com/sketch -->
    <title>furgon</title>
    <desc>Created with Sketch.</desc>
    <g id="furgon" stroke="none" stroke-width="1" fill="none" fill-rule="evenodd">
        <g>
            <rect id="box" x="0" y="0" width="95" height="70"></rect>
            <path d="M66.7212,37.5504 C68.1142,38.7514 69.5002,40.0954 70.6862,41.1764 C71.8902,42.2744 73.2842,43.5924 74.7082,44.7894 C74.2872,44.8104 73.8812,44.9854 73.5552,45.2984 L73.5512,45.3034 C72.8342,45.9944 72.5222,47.8944 72.4892,48.8804 C72.4772,49.2154 72.5562,49.5344 72.7172,49.8164 L71.1152,49.8164 C67.3632,49.8164 60.2552,46.9214 60.2552,46.9214 L60.2552,37.1154 L65.5522,37.1154 C65.9982,37.1154 66.3832,37.2584 66.7212,37.5504" id="Fill-1" fill="#6C6E70"></path>
            <path d="M74.188,45.9317 L74.172,45.9477 C73.672,46.4307 73.407,48.2237 73.383,48.9107 C73.375,49.1567 73.457,49.3727 73.627,49.5487 C73.798,49.7267 74.01,49.8157 74.257,49.8157 L76.236,49.8157 C78.353,49.8157 75.876,46.0067 75.087,45.7317 C74.766,45.6197 74.432,45.6977 74.188,45.9317" id="Fill-3" fill="#6C6E70"></path>
            <path d="M57.0639,37.1954 L57.0639,45.1304 C57.0639,46.1164 56.2589,46.9214 55.2729,46.9214 L37.5589,46.9214 C36.5739,46.9214 35.7679,46.1164 35.7679,45.1304 L35.7679,37.1954 C35.7679,36.2094 36.5739,35.4044 37.5589,35.4044 L55.2729,35.4044 C56.2589,35.4044 57.0639,36.2094 57.0639,37.1954" id="Fill-5" fill="#6C6E70"></path>
            <polygon id="Clip-8" points="0 69.487 94.209 69.487 94.209 29 0 29"></polygon>
            <polygon id="Fill-7" fill="#6C6E70" points="59.211 50.975 63.343 50.975 63.343 49.783 59.211 49.783"></polygon>
            <polygon id="Fill-9" fill="#6C6E70" points="52.631 49.905 56.761 49.905 56.761 48.712 52.631 48.712"></polygon>
            <polygon id="Fill-10" fill="#6C6E70" points="10.359 50.728 34.411 50.728 34.411 49.536 10.359 49.536"></polygon>
            <path d="M92.1821,54.8946 C90.1361,53.7906 86.3351,51.7036 85.7811,51.1486 C85.5541,50.9226 85.4981,49.2216 85.5491,47.7416 C88.4981,48.9796 91.3021,50.3906 91.4981,51.2596 C91.9941,53.0436 92.1561,53.7446 92.1821,54.8916 L92.1821,54.8946 Z" id="Fill-11" fill="#6C6E70"></path>
            <path d="M1.7622,53.1592 C3.3752,52.8032 5.0612,51.6272 5.1232,50.3142 L5.1232,39.5942 L2.1602,39.5942 C1.9772,43.3272 1.8772,48.5002 1.8142,51.3042 C1.9102,51.5892 1.9612,51.8192 1.9532,51.9842 C1.9532,52.3782 1.8732,52.7842 1.7622,53.1592" id="Fill-12" fill="#6C6E70"></path>
            <path d="M24.298,64.777 L73.318,64.777 L73.318,62.988 L24.298,62.988 L24.298,64.777 Z M5.715,64.782 C3.589,64.782 2.191,63.965 1.387,63.266 C0.478,62.472 0.113,61.662 0.073,61.573 L0,61.218 L0,55.637 L0.13,55.421 C0.144,55.398 0.323,55.098 0.501,54.666 C0.741,54.092 0.867,53.572 0.867,53.159 C0.887,52.737 0.911,51.655 0.943,50.197 C1.041,45.712 1.206,38.207 1.559,35.772 C2.24,31.089 3.321,29.002 5.062,29.002 L5.766,29 L54.791,29 C59.415,29.239 63.103,31.305 65.807,33.08 C67.363,34.102 69.704,36.239 72.182,38.501 C74.829,40.917 77.563,43.413 79.273,44.474 C80.642,44.913 91.813,48.589 92.372,51.061 C93.076,53.586 93.127,54.047 93.056,56.636 C93.793,57.15 94.222,57.975 94.208,58.878 L94.162,61.952 C94.143,63.237 93.208,64.334 91.939,64.558 L91.537,64.619 C90.714,64.73 88.407,64.777 87.03,64.777 L84.136,64.777 L84.136,62.988 L87.03,62.988 C88.763,62.988 90.715,62.923 91.292,62.845 L91.63,62.793 C92.058,62.717 92.364,62.361 92.371,61.925 L92.417,58.849 C92.423,58.468 92.217,58.153 91.866,58.008 L91.293,57.773 L91.25,57.128 C91.335,54.206 91.341,54.035 90.635,51.499 C89.981,50.313 81.482,46.942 78.658,46.159 L78.435,46.062 C76.58,44.941 73.731,42.34 70.974,39.823 C68.658,37.707 66.261,35.521 64.825,34.577 C61.039,32.093 58.024,30.96 54.745,30.789 L5.067,30.792 C5.052,30.792 4.06,31.017 3.332,36.031 C2.994,38.355 2.825,46.085 2.733,50.237 C2.702,51.721 2.676,52.824 2.658,53.206 C2.658,53.815 2.489,54.553 2.156,55.353 C2.021,55.676 1.886,55.943 1.791,56.12 L1.791,60.998 C1.903,61.189 2.148,61.553 2.563,61.915 C3.424,62.664 4.548,63.046 5.917,62.988 L13.48,62.988 L13.48,64.777 L5.941,64.777 C5.865,64.78 5.789,64.782 5.715,64.782 Z" id="Fill-13" fill="#6C6E70"></path>
            <path d="M18.8374,59.0953 C21.0134,59.0953 22.7774,60.8603 22.7774,63.0363 C22.7774,65.2123 21.0134,66.9773 18.8374,66.9773 C16.6604,66.9773 14.8964,65.2123 14.8964,63.0363 C14.8964,60.8603 16.6604,59.0953 18.8374,59.0953 M18.8374,55.1823 L18.8364,55.1823 C16.7414,55.1823 14.8354,56.0393 13.4544,57.4203 C12.0744,58.8003 11.2184,60.7063 11.2184,62.8023 L11.2184,63.8833 L11.2184,64.7783 L12.1124,64.7783 L12.6244,64.7783 C12.9274,65.8593 13.5044,66.8263 14.2754,67.5973 C15.4424,68.7643 17.0564,69.4873 18.8374,69.4873 C20.6164,69.4873 22.2294,68.7643 23.3964,67.5973 L23.3994,67.5973 C24.1714,66.8263 24.7484,65.8593 25.0514,64.7783 L25.5614,64.7783 L26.4564,64.7783 L26.4564,63.8833 L26.4564,62.8023 C26.4564,60.7093 25.5994,58.8053 24.2194,57.4233 L24.2174,57.4213 L24.2154,57.4203 C22.8334,56.0393 20.9284,55.1823 18.8374,55.1823" id="Fill-14" fill="#6C6E70"></path>
            <path d="M78.9263,59.0953 C76.7493,59.0953 74.9853,60.8603 74.9853,63.0363 C74.9853,65.2123 76.7493,66.9773 78.9263,66.9773 C81.1023,66.9773 82.8663,65.2123 82.8663,63.0363 C82.8663,60.8603 81.1023,59.0953 78.9263,59.0953 Z M85.1393,64.7783 C84.8373,65.8593 84.2603,66.8263 83.4883,67.5973 L83.4853,67.5973 C82.3183,68.7643 80.7043,69.4873 78.9263,69.4873 C77.1453,69.4873 75.5313,68.7643 74.3643,67.5973 C73.5933,66.8263 73.0153,65.8593 72.7133,64.7783 L72.2013,64.7783 L71.3063,64.7783 L71.3063,63.8833 L71.3063,62.8023 C71.3063,60.7063 72.1633,58.8003 73.5433,57.4203 C74.9243,56.0393 76.8303,55.1823 78.9253,55.1823 L78.9263,55.1823 C81.0183,55.1823 82.9223,56.0393 84.3043,57.4203 L84.3063,57.4213 L84.3083,57.4233 C85.6883,58.8053 86.5453,60.7093 86.5453,62.8023 L86.5453,63.8833 L86.5453,64.7783 L85.6503,64.7783 L85.1393,64.7783 Z" id="Fill-15" fill="#6C6E70"></path>
            <path d="M78.9263,61.4024 C78.0233,61.4024 77.2923,62.1334 77.2923,63.0364 C77.2923,63.9394 78.0233,64.6704 78.9263,64.6704 C79.8293,64.6704 80.5603,63.9394 80.5603,63.0364 C80.5603,62.1334 79.8293,61.4024 78.9263,61.4024" id="Fill-16" fill="#6C6E70"></path>
            <path d="M18.8374,61.4024 C17.9354,61.4024 17.2034,62.1334 17.2034,63.0364 C17.2034,63.9394 17.9354,64.6704 18.8374,64.6704 C19.7404,64.6704 20.4714,63.9394 20.4714,63.0364 C20.4714,62.1334 19.7404,61.4024 18.8374,61.4024" id="Fill-17" fill="#6C6E70"></path>
        </g>
    </g>
</svg>

<svg viewBox="0 0 95 70" xmlns="http://www.w3.org/2000/svg"><g fill="none" fill-rule="evenodd"><path d="M0 0H95V70H0z"/><path d="M66.721 37.55c1.393 1.201 2.78 2.545 3.965 3.626 1.204 1.098 2.598 2.416 4.022 3.613a1.79 1.79 0 0 0-1.153.51l-.004.004c-.717.691-1.029 2.591-1.062 3.577-.012.335.067.654.228.936h-1.602c-3.752 0-10.86-2.895-10.86-2.895v-9.806h5.297c.446 0 .831.143 1.17.435" fill="#6C6E70"/><path d="M74.188 45.932l-.016.016c-.5.483-.765 2.276-.789 2.963a.849.849 0 0 0 .244.638.843.843 0 0 0 .63.267h1.979c2.117 0-.36-3.81-1.149-4.084a.864.864 0 0 0-.899.2m-17.124-8.737v7.935c0 .986-.805 1.791-1.791 1.791H37.559a1.796 1.796 0 0 1-1.791-1.79v-7.936c0-.986.806-1.79 1.79-1.79h17.715c.986 0 1.79.804 1.79 1.79" fill="#6C6E70"/><path d="M0 69.487L94.209 69.487 94.209 29 0 29z"/><path fill="#6C6E70" d="M59.211 50.975L63.343 50.975 63.343 49.783 59.211 49.783z"/><path fill="#6C6E70" d="M52.631 49.905L56.761 49.905 56.761 48.712 52.631 48.712z"/><path fill="#6C6E70" d="M10.359 50.728L34.411 50.728 34.411 49.536 10.359 49.536z"/><path d="M92.182 54.895c-2.046-1.104-5.847-3.191-6.4-3.746-.228-.226-.284-1.927-.233-3.407 2.95 1.238 5.753 2.649 5.95 3.518.495 1.784.657 2.485.683 3.632v.003zm-90.42-1.736c1.613-.356 3.3-1.532 3.361-2.845v-10.72H2.16c-.183 3.733-.283 8.906-.346 11.71.096.285.147.515.14.68 0 .394-.08.8-.192 1.175" fill="#6C6E70"/><path d="M24.298 64.777h49.02v-1.789h-49.02v1.789zm-18.583.005c-2.126 0-3.524-.817-4.328-1.516-.909-.794-1.274-1.604-1.314-1.693L0 61.218v-5.581l.13-.216c.014-.023.193-.323.371-.755.24-.574.366-1.094.366-1.507.02-.422.044-1.504.076-2.962.098-4.485.263-11.99.616-14.425.681-4.683 1.762-6.77 3.503-6.77L5.766 29h49.025c4.624.239 8.312 2.305 11.016 4.08 1.556 1.022 3.897 3.159 6.375 5.421 2.647 2.416 5.381 4.912 7.091 5.973 1.369.439 12.54 4.115 13.099 6.587.704 2.525.755 2.986.684 5.575a2.663 2.663 0 0 1 1.152 2.242l-.046 3.074a2.693 2.693 0 0 1-2.223 2.606l-.402.061c-.823.111-3.13.158-4.507.158h-2.894v-1.789h2.894c1.733 0 3.685-.065 4.262-.143l.338-.052a.888.888 0 0 0 .741-.868l.046-3.076a.868.868 0 0 0-.551-.841l-.573-.235-.043-.645c.085-2.922.091-3.093-.615-5.629-.654-1.186-9.153-4.557-11.977-5.34l-.223-.097c-1.855-1.121-4.704-3.722-7.461-6.239-2.316-2.116-4.713-4.302-6.149-5.246-3.786-2.484-6.801-3.617-10.08-3.788l-49.678.003c-.015 0-1.007.225-1.735 5.239-.338 2.324-.507 10.054-.599 14.206a182.874 182.874 0 0 1-.075 2.969c0 .609-.169 1.347-.502 2.147-.135.323-.27.59-.365.767v4.878c.112.191.357.555.772.917.861.749 1.985 1.131 3.354 1.073h7.563v1.789H5.941a5.765 5.765 0 0 1-.226.005z" fill="#6C6E70"/><path d="M18.837 59.095a3.94 3.94 0 1 1-.001 7.882 3.94 3.94 0 0 1 .001-7.882m0-3.913a7.598 7.598 0 0 0-5.383 2.238 7.597 7.597 0 0 0-2.236 5.382v1.976H12.624a6.452 6.452 0 0 0 1.651 2.82 6.434 6.434 0 0 0 4.562 1.89 6.43 6.43 0 0 0 4.56-1.89h.002a6.444 6.444 0 0 0 1.652-2.82h1.405v-1.975a7.6 7.6 0 0 0-2.237-5.38l-.002-.002h-.002a7.598 7.598 0 0 0-5.378-2.239m60.09 3.913a3.941 3.941 0 1 0 0 7.882 3.941 3.941 0 0 0 0-7.882zm6.212 5.683a6.433 6.433 0 0 1-1.65 2.82h-.004a6.432 6.432 0 0 1-4.559 1.89 6.434 6.434 0 0 1-4.562-1.89 6.442 6.442 0 0 1-1.65-2.82h-1.408v-1.975c0-2.097.857-4.003 2.237-5.383a7.598 7.598 0 0 1 5.382-2.238h.001c2.092 0 3.996.857 5.378 2.238l.002.001.002.002a7.6 7.6 0 0 1 2.237 5.38v1.975H85.14z" fill="#6C6E70"/><path d="M78.926 61.402a1.633 1.633 0 1 0-.001 3.267 1.633 1.633 0 0 0 .001-3.267m-60.089 0a1.634 1.634 0 1 0 0 3.268 1.634 1.634 0 0 0 0-3.268" fill="#6C6E70"/></g></svg>
